X: 5399
T: Buddy's Order Of Canada
R: jig
M: 6/8
K: Emajor
|:EFE gfe|cAc e2f|ecB beg|f2 g fdB|
EFE gfe|cAc e2f|ecB beg|fgf e2:|
bef gfe|cAc e2 f|ecB beg|f2 g fdB|
[1 bef gfe|cAc e2 f|ecB beg|fgg e2:|
[2 EFE gfe|cAc e2f|ecB beg|fgf e2||

